X:1
T:Title
%%score { ( 1 4 ) | ( 2 3 ) }
L:1/8
Q:1/4=100
M:4/4
K:F
V:1 treble nm="Grand Piano"
V:4 treble 
V:2 bass 
V:3 bass 
V:1
 A3 A B2 A2 | [Ec]3 [EG] [GB]2 [FA]2 | [FA]3 [FA] [Fd]2 [FA]2 | =B2 B2 [Ec]2 _B2 | A3 A c2 [CF]2 | %5
w: R.~Donald~Jones * * *|||||
 [CFA]3 [B,EG] [B,EG]2 [A,F]2 | [DF]2 [Fd]2 [Ec]2 [CE]2 | [CF]6 z2 | [EG]3 [FA] [GB]2 [Ed]2 | %9
w: ||||
 [Fc]3 [CEG] [CGB]2 [CFA]2 | [CFA]3 [^CGA] [DFd]2 [DAc]2 | [DGc]2 [DF=B]2 [Ec]2 [G_B]2 | %12
w: |||
 [CFA]3 [CFA] [Fc]2 [CF]2 | [CFA]3 [B,EG] [B,EG]2 [A,F]2 | [DF]2 [Fd]2 [Ec]2 E2 | F6 z2 |] %16
w: ||||
V:2
 [F,CF]3 [F,CF] [F,DF]2 [F,CF]2 | [C,C]3 [C,C] [E,C]2 [F,C]2 | [D,D]3 [D,D] [D,A,]2 [D,D]2 | %3
 [G,DF]2 [G,F]2[K:bass] G,2 [CG]2 | [F,CF]3 [F,CF] [F,A,F]2 A,,2 | C,3 C, ^C,2 D,2 | %6
 [B,,B,]2 [B,,B,]2 [C,G,]2 [C,B,]2 | [F,A,]6 z2 | [C,C]3 [C,C] [C,C]2 [C,B,]2 | %9
 [C,A,]3 C, E,2 F,2 | F,3 E, D,2 ^F,2 | G,2 G,2 C,2 E,2 | F,3 F, [F,A,]2 A,,2 | C,3 C, ^C,2 D,2 | %14
 [B,,B,]2 [B,,B,]2 [C,G,]2 [C,B,C]2 | [F,A,C]6 z2 |] %16
V:3
 x8 | x8 | x8 | z4[K:bass] C,4 | x8 | x8 | x8 | x8 | x8 | x8 | x8 | x8 | x8 | x8 | x8 | x8 |] %16
V:4
 x8 | x8 | x8 | x8 | x8 | x8 | x8 | x8 | x8 | x8 | x8 | z4 C4 | x8 | x8 | x8 | x8 |] %16

